flaticon/essential/rewind.svg

<svg xmlns="http://www.w3.org/2000/svg" width="32" height="32" viewBox="0 0 24 24">
    <path d="M 23.773438 3.632812 C 23.632812 3.558594 23.464844 3.570312 23.335938 3.660156 L 12.210938 11.484375 L 12.210938 4 C 12.210938 3.84375 12.121094 3.699219 11.984375 3.625 C 11.84375 3.554688 11.675781 3.566406 11.546875 3.65625 L 0.179688 11.65625 C 0.0664062 11.734375 0 11.863281 0 12 C 0 12.136719 0.0664062 12.265625 0.179688 12.34375 L 11.546875 20.34375 C 11.621094 20.394531 11.703125 20.421875 11.789062 20.421875 C 11.855469 20.421875 11.921875 20.40625 11.984375 20.375 C 12.121094 20.300781 12.210938 20.15625 12.210938 20 L 12.210938 12.515625 L 23.335938 20.339844 C 23.410156 20.390625 23.492188 20.414062 23.578125 20.414062 C 23.644531 20.414062 23.710938 20.402344 23.773438 20.367188 C 23.914062 20.296875 24 20.152344 24 19.996094 L 24 4.003906 C 24 3.847656 23.914062 3.703125 23.773438 3.632812 Z M 11.367188 19.1875 L 1.152344 12 L 11.367188 4.8125 Z M 23.15625 19.183594 L 12.941406 12 L 23.15625 4.816406 Z M 23.15625 19.183594"/>
</svg>

<svg xmlns="http://www.w3.org/2000/svg" width="32" height="32" viewBox="0 0 24 24">
    <path d="M23.773 3.633a.42.42 0 0 0-.437.027L12.21 11.484V4c0-.156-.09-.3-.227-.375a.43.43 0 0 0-.437.031l-11.367 8a.417.417 0 0 0 0 .688l11.367 8a.425.425 0 0 0 .437.031.431.431 0 0 0 .227-.375v-7.484l11.125 7.824c.074.05.156.074.242.074a.39.39 0 0 0 .195-.047.413.413 0 0 0 .227-.37V4.003c0-.156-.086-.3-.227-.371zM11.367 19.188L1.152 12l10.215-7.188zm11.79-.004L12.94 12l10.215-7.184zm0 0"/>
</svg>
